X:106
T:The Shaalds of Foula 2
M:6/8
L:1/8
K:A
"A"A3/B/A A2a | "D"f/e3/c "E7"B2c | "A"A2c "E7"B2c | "A"ABA "D"F2E | 
"A"A3/B/A A2a | "D"f/e3/c "E7"B2c | "F#m"A2c "Bm"B2c | "E7"e3 e3 :| 
|: "A"a2e c2e | "D"fec "E7"B3 | "A"a2e "E7"c2e | "A"ABA "D"F2A | 
"A"a2e c2e | "D"fec "E7"B3 | "F#m"A2c "Bm"B2c | "E7"e3 e3 :|]

%%newpage

